!!!!SEGMENT: pl-wnifc--3111-n--001-006_sowinski-wojciech--grandes-etudes-de-concert-op-60-etude-d-octaves-liees-et-detachees.krn
!!!cenid: 18xx:3856
!!!COM: Sowiński, Wojciech
!!!COM-rismID: pe30008543
!!!CDT: ~1803-1880/03/05
!!!CNT: Polish
!!!GTL: Grandes Études de concert op. 60
!!!OTL: Étude d’octaves liées et detachées
!!!OMV: 006
!!!PDT: 1843
!!!AGN: Secular; Etude
!!!YEC: Copyright 2022 Narodowy Instytut Fryderyka Chopina (https://polishscores.org)
!!!YEM: License CC-BY-4.0 (https://creativecommons.org/licenses/by/4.0)
!!!SMS-siglum: PL-Wnifc
!!!SMS-shelfmark: 3111/n
!!!SMS-shelfwork: 001-006 G
!!!SMS-variant:
!!!SMS-altvar:
!!!NIFC-rismSourceID: 1001141968
!!!NIFC-rismChildID: 1001141974
!!!NIFC-islandoraID: nifc:212151
!!!URL-pdf-islandora: https://repozytorium.nifc.pl/islandora/object/nifc%3A212151/datastream/PDF/view
!!!URL-scan: https://polish.musicsources.pl/pl/lokalizacje/galeria/druki-muzyczne/16829 @EN{Scan on Polish Music Sources Website} @PL{Skany w portalu Dziedzictwo Muzyki Polskiej w otwartym dostępie}
!!!IIIF:
!!!ONB-nifc:
!!!AIN: 1 piano
!!!key: F
**kern	**fing	**dynam	**kern	**fing	**dynam
*part2	*	*	*part1	*	*
*staff2	*	*	*staff1	*	*
*I"Piano	*	*	*I"Piano	*	*
*I'P-no	*	*	*I'P-no	*	*
*ICklav	*	*	*	*	*
*Ipiano	*	*	*	*	*
*clefF4	*	*	*clefG2	*	*
*k[b-]	*	*	*k[b-]	*	*
*F:	*	*	*F:	*	*
*M6/8	*	*	*M6/8	*	*
=1	=1	=1	=1	=1	=1
!	!	!	!LO:TX:a:t=Allegro vivace.	!	!
4r	.	.	16cccLL 16cc'\	.	pp
.	.	.	16ccc 16cc'\	.	.
.	.	.	16ccc 16cc'\	.	.
.	.	.	16ccc 16cc'\	.	.
*clefG2	*	*	*	*	*
8r	.	.	16ccc 16cc'\	.	.
.	.	.	16cccJJ 16cc'\	.	.
(4.b- 4.g/	.	.	16cccLL 16cc'\	.	.
.	.	.	16ccc 16cc'\	.	.
.	.	.	16ccc 16cc'\	.	.
.	.	.	16ccc 16cc'\	.	.
.	.	.	16ccc 16cc'\	.	.
.	.	.	16cccJJ 16cc'\	.	.
=2	=2	=2	=2	=2	=2
4.a 4.f/	.	.	16cccLL 16cc'\	.	.
.	.	.	16ccc 16cc'\	.	.
.	.	.	16ccc 16cc'\	.	.
.	.	.	16ccc 16cc'\	.	.
.	.	.	16ccc 16cc'\	.	.
.	.	.	16cccJJ 16cc'\	.	.
4.g 4.e/	.	.	16cccLL 16cc'\	.	.
.	.	.	16ccc 16cc'\	.	.
.	.	.	16ccc 16cc'\	.	.
.	.	.	16ccc 16cc'\	.	.
.	.	.	16ccc 16cc'\	.	.
.	.	.	16cccJJ 16cc'\	.	.
=3	=3	=3	=3	=3	=3
4f#X 4d#X/	.	.	16cccLL 16cc'\	.	.
.	.	.	16ccc 16cc'\	.	.
.	.	.	16ccc 16cc'\	.	.
.	.	.	16ccc 16cc'\	.	.
8fn 8dn/	.	.	16ccc 16cc'\	.	.
.	.	.	16cccJJ 16cc'\	.	.
4.e 4.c/)	.	.	16cccLL 16cc'\	.	.
.	.	.	16ccc 16cc'\	.	.
.	.	.	16ccc 16cc'\	.	.
.	.	.	16ccc 16cc'\	.	.
!	!	!	!LO:TX:b:t=rallent	!	!
.	.	.	(16bbn 16bn\	.	.
.	.	.	16bb-XJJ 16b-X\)	.	.
*clefF4	*	*	*	*	*
=4||	=4||	=4||	=4||	=4||	=4||
8F 8FF\	.	.	16aaLL 16a'\	.	mf <
.	.	.	16ccc 16cc'\	.	.
8AL 8F\	.	.	16ddd 16dd'\	.	.
.	.	.	16eee 16ee'\	.	.
8c 8A\	.	.	16fff 16ff'\	.	.
.	.	.	16gggJJ 16gg'\	.	.
8f 8c\	.	.	(16aaaLL 16aa^^\	.	[ >
.	.	.	16ggg 16gg\	.	.
8A 8F\	.	.	16fff 16ff\	.	.
.	.	.	16eee 16ee\	.	.
8cJ 8A\	.	.	16ddd 16dd\	.	.
.	.	.	16cccJJ 16cc\)	.	.
!!LO:LB:g=original
=5	=5	=5	=5	=5	=5
8G 8GG\	.	.	16bbnLL 16bn'\	.	.
.	.	.	16bb 16b'\	.	]
8dL 8G\	.	.	16bb 16b'\	.	.
.	.	.	16bb 16b'\	.	.
8fJ 8d 8G\	.	.	16bb 16b'\	.	.
.	.	.	16bbJJ 16b'\	.	.
8C 8CC\	.	.	16bb-XLL 16b-X'\	4	.
.	.	.	16bb- 16b-'\	.	>
8cL 8B- 8G\	.	.	16bb- 16b-'\	.	.
.	.	.	(16ddd 16dd\	5	.
8eJ 8c 8B-\	.	.	16ccc 16cc\	.	.
.	.	.	16bb-JJ 16b-\)	.	]]
=6	=6	=6	=6	=6	=6
8F 8FF\	.	.	16aaLL 16a'\	.	<
.	.	.	16ccc 16cc'\	.	.
8AL 8F\	.	.	16ddd 16dd'\	.	.
.	.	.	16eee 16ee'\	.	.
8c 8A\	.	.	16fff 16ff'\	.	.
.	.	.	16gggJJ 16gg'\	.	.
8f 8c\	.	.	(16aaaLL 16aa^^\	.	[ >
.	.	.	16ggg 16gg\	.	.
8A 8F\	.	.	16fff 16ff\	.	.
.	.	.	16eee 16ee\	.	.
8cJ 8A\	.	.	16ddd 16dd\	.	.
.	.	.	16cccJJ 16cc\)	.	]]
=7	=7	=7	=7	=7	=7
8G 8GG\	.	.	16bbnLL 16bn'\	.	rfz
.	.	.	16bb 16b'\	.	.
8dL 8G\	.	.	16bb 16b'\	.	.
.	.	.	16bb 16b'\	.	.
8fJ 8d 8G\	.	.	16bb 16b'\	.	.
.	.	.	16bbJJ 16b'\	.	.
8C 8CC\	.	.	16bb-XLL 16b-X'\	.	>
.	.	.	16bb- 16b-'\	.	.
8cL 8B- 8G\	.	.	16bb- 16b-'\	.	.
.	.	.	(16ddd 16dd\	.	.
8eJ 8c 8B-\	.	.	16ccc 16cc\	.	.
.	.	.	16bb-JJ 16b-\)	.	]]
=8	=8	=8	=8	=8	=8
8F 8FF\	.	.	16aaLL 16a'\	.	<
.	.	.	16ccc 16cc'\	.	.
8AL 8F\	.	.	16ddd 16dd'\	.	.
.	.	.	16eee 16ee'\	.	.
8c 8A\	.	.	16fff 16ff'\	.	.
.	.	.	16gggJJ 16gg\	.	.
8f 8c 8A\	.	.	(16fffLL 16ff\	.	[ >
.	.	.	16eee 16ee\	.	.
8A 8F\	.	.	16ddd 16dd\	.	.
.	.	.	16ccc 16cc\	.	.
8cJ 8A\	.	.	16bbn 16bn\	.	.
.	.	.	16aaJJ 16a\)	.	]]
!!LO:LB:g=original
=9	=9	=9	=9	=9	=9
*	*	*	*ped	*	*
8E 8EE/	.	.	16gg#XLL 16g#X'\	4	f
.	.	.	16gg# 16g#'\	.	.
8dL 8Bn\	.	.	16gg# 16g#'\	.	.
.	.	.	16gg# 16g#'\	.	.
8B 8G#X\	.	.	16gg# 16g#'\	.	.
.	.	.	16bbnJJ 16bn'\	5	.
8G# 8E\	.	.	16dddLL 16dd'\	5	.
.	.	.	(16fff 16ff'\	5	.
8B 8G# 8E\	.	.	16eee 16ee\	.	.
.	.	.	16ddd 16dd\	.	.
8dJ 8G# 8E\	.	.	16ccc 16cc\	.	.
.	.	.	16bbnJJ 16bn\)	.	.
*	*	*	*Xped	*	*
=10	=10	=10	=10	=10	=10
*	*	*	*ped	*	*
8A 8AA\	.	.	2.aa 2.a\	.	fp
(8AL 8E\	.	.	.	.	.
8c 8A\	.	.	.	.	.
8e 8c 8A\	.	.	.	.	.
8c 8A\	.	.	.	.	.
8AJ 8E\)	.	.	.	.	.
*	*	*	*Xped	*	*
=11	=11	=11	=11	=11	=11
8E 8EE/	.	.	16gg#XLL 16g#X'\	4	p
.	.	.	16gg# 16g#'\	.	.
8dL 8Bn\	.	.	16gg# 16g#'\	.	.
.	.	.	16gg# 16g#'\	.	.
8B 8G#X\	.	.	(16gg# 16g#\	.	.
.	.	.	16bbnJJ 16bn\)	5	.
8G# 8E\	.	.	16dddLL 16dd\	5	.
.	.	.	16fff 16ff'\	.	.
8B 8G#\	.	.	16eee 16ee'\	.	.
.	.	.	16ddd 16dd'\	.	.
8dJ 8G#\	.	.	16ccc 16cc'\	.	.
.	.	.	16bbJJ 16b'\	.	.
=12	=12	=12	=12	=12	=12
!	!	!	!LO:TX:a:t=ten	!	!
8AL 8AA\	.	.	[4.ccc [4.cc\	.	ff
8c 8A 8E\	.	.	.	.	.
8eJ 8c 8A\	.	.	.	.	.
!	!	!	!LO:TX:b:t=con fuoco	!	!
8F#X 8FF#X\	.	sf	16ccc]LL 16cc\]	.	.
.	.	.	16bbn 16bn\	.	.
8d#XL 8c 8A\	.	.	16ccc 16cc\	.	.
.	.	.	16bb 16b\	.	.
8AJ 8Fn\	.	.	16ccc 16cc\	.	.
.	.	.	16dddJJ 16dd\	.	.
=13	=13	=13	=13	=13	=13
8G 8GG'\	.	.	(16eeeLL 16ee\	.	f
.	.	.	16bbn 16bn\)	.	.
8eL 8c\	.	.	16ccc 16cc'\	.	.
.	.	.	16bb 16b'\	.	.
8G\J	.	.	16ccc 16cc'\	.	.
.	.	.	16dddJJ 16dd'\	.	.
8G 8GG'\	.	.	(16cccLL 16cc\	.	.
.	.	.	16bbn 16bn\)	.	.
8fL 8d\	.	.	16aa 16a'\	.	.
.	.	.	16gg 16g'\	.	.
8dJ 8G\	.	.	16aa 16a'\	.	.
.	.	.	16bbJJ 16b'\	.	.
!!LO:LB:g=original
=14	=14	=14	=14	=14	=14
8e: 8G: 8C:\	.	.	16cccLL 16cc'\	.	<
.	.	.	16ddd 16dd'\	.	.
8r	.	.	16ccc 16cc'\	.	.
.	.	.	16bbn 16bn'\	.	.
8r	.	.	16ccc 16cc'\	.	.
.	.	.	16dddJJ 16dd'\	.	.
4r	.	.	16eeeLL 16ee'\	.	.
.	.	.	16fff 16ff'\	.	.
.	.	.	16ggg 16gg'\	.	.
.	.	.	16aaa 16aa'\	.	.
8r	.	.	16bbb- 16bb'\	.	.
.	.	.	16aaaJJ 16aa'\	.	.
=15	=15	=15	=15	=15	=15
2.r	.	.	16gggLL 16gg'\	.	.
.	.	.	16fff 16ff'\	.	.
.	.	.	16eee 16ee'\	.	[
.	.	.	16ddd 16dd'\	.	.
.	.	.	16ccc 16cc'\	.	.
.	.	.	(16eeeJJ 16ee\	.	.
.	.	.	16gggLL 16gg'\)	.	.
.	.	.	32r	.	.
!	!	!	!LO:TX:b:t=dolce rall	!	!
.	.	.	(32fffK 32ff\	.	.
.	.	.	16eee 16ee\	.	.
.	.	.	16ddd 16dd\	.	.
.	.	.	16ccc 16cc\)	.	.
.	.	.	16bb-JJ 16b-\	4	.
=16	=16	=16	=16	=16	=16
!	!	!	!LO:TX:b:t=a tempo	!	!
8F 8FF\	.	.	16aaLL 16a\	.	<
.	.	.	16ccc 16cc'\	.	.
(8AL 8F\	.	.	16ddd 16dd'\	.	.
.	.	.	16eee 16ee'\	.	.
8c 8A\	.	.	16fff 16ff'\	.	.
.	.	.	16gggJJ 16gg'\	.	.
8f 8c\	.	.	16aaaLL 16aa^^\	.	[ >
.	.	.	(16ggg 16gg\	.	.
8A 8F\	.	.	16fff 16ff\	.	.
.	.	.	16eee 16ee\	.	.
8cJ 8A\)	.	.	16ddd 16dd\	.	.
.	.	.	16cccJJ 16cc\)	.	]
=17	=17	=17	=17	=17	=17
8G 8GG\	.	.	16bbnLL 16bn'\	.	.
.	.	.	16bb 16b'\	.	.
8dL 8G\	.	.	16bb 16b'\	.	.
.	.	.	16bb 16b'\	.	.
8fJ 8d 8G\	.	.	16bb 16b'\	.	.
.	.	.	16bbJJ 16b'\	.	.
8C 8CC\	.	.	16bb-XLL 16b-X'\	.	.
.	.	.	16bb- 16b-'\	.	.
8cL 8B- 8G\	.	.	16bb- 16b-'\	.	>
.	.	.	16ddd 16dd\	.	.
8eJ 8c\	.	.	16ccc 16cc\	.	.
.	.	.	16bb-JJ 16b-\	.	]]
!!LO:LB:g=original
=18	=18	=18	=18	=18	=18
16FLL 16FF\	.	.	4aa 4a\	.	<
16c 16C'\	.	.	.	.	.
16d 16D'\	.	.	.	.	.
16e 16E'\	.	.	.	.	.
16f 16F'\	.	.	8r	.	.
16gJJ 16G'\	.	.	.	.	.
16aLL 16A'\	.	.	4r	.	[ >
16g 16G'\	.	.	.	.	.
16f 16F'\	.	.	.	.	.
16e 16E'\	.	.	.	.	.
16d 16D'\	.	.	8r	.	]]
16cJJ 16C'\	.	.	.	.	.
=19	=19	=19	=19	=19	=19
16BnLL 16BBn'\	.	.	8r	.	.
16B 16BB'\	.	.	.	.	.
16B 16BB'\	.	.	4gg 4dd 4g^\	.	sf
16B 16BB'\	.	.	.	.	.
16B 16BB'\	.	.	.	.	.
16BJJ 16BB'\	.	.	.	.	.
16B-XLL 16BB-X'\	.	.	8r	.	.
16B- 16BB-'\	.	.	.	.	.
16B- 16BB-'\	.	.	4ff 4ee 4g^\	.	sf
(16d-X 16D-X\	.	.	.	.	.
16c 16C\	.	.	.	.	.
16B-JJ 16BB-\)	.	.	.	.	.
=20	=20	=20	=20	=20	=20
16ALL 16AA'\	.	.	4.r	.	<
16c 16C'\	.	.	.	.	.
16d 16D'\	.	.	.	.	.
16e 16E'\	.	.	.	.	.
16f 16F'\	.	.	.	.	.
16gJJ 16G'\	.	.	.	.	.
8aL 8f 8c\	.	.	16cccLL 16cc'\	.	[ <
.	.	.	16ddd 16dd'\	.	.
8a 8f 8c\	.	.	16eee 16ee'\	.	.
.	.	.	16fff 16ff'\	.	.
8aJ 8f 8c\	.	.	16ggg 16gg'\	.	.
.	.	.	16aaaJJ 16aa'\	.	[[
*clefG2	*	*	*	*	*
=21	=21	=21	=21	=21	=21
*	*	*	*ped	*	*
16b-LL 16f 16d'/	.	.	8.bbb-L 8.bb-^\	.	fp
16b-J 16f 16d'/	.	.	.	.	.
8b- 8f 8d'/	.	.	.	.	.
.	.	.	(16fffL 16ff\	.	.
8b-J 8f 8d'/	.	.	16ggg 16gg\	.	.
*	*	*	*Xped	*	*
.	.	.	16fffJJ 16ff\)	.	.
!	!	!	!LO:TX:b:t=slantendo	!	!
*	*	*	*ped	*	*
16anLL 16e 16c#X'/	.	.	8.aaaL 8.aa^\	.	.
16aJ 16e 16c#'/	.	.	.	.	.
8a 8e 8c#'/	.	.	.	.	.
.	.	.	(16eeeL 16ee\	.	.
8aJ 8e 8c#'/	.	.	16fff 16ff\	.	.
.	.	.	16eeeJJ 16ee\)	.	.
*	*	*	*Xped	*	*
!!LO:PB:g=original
=22	=22	=22	=22	=22	=22
*	*	*	*ped	*	*
16a-XLL 16e-X 16c'/	.	.	8.aaa-XL 8.aa-X\	.	.
16a-J 16e- 16c'/	.	.	.	.	.
8a- 8e- 8c'/	.	.	.	.	.
.	.	.	(16eee-XL 16ee-X\	.	.
8a-J 8e- 8c'/	.	.	16fff 16ff\	.	.
*	*	*	*Xped	*	*
.	.	.	16eee-JJ 16ee-\)	.	.
*	*	*	*ped	*	*
16gLL 16d 16Bn'/	.	.	8.gggL 8.gg\	.	.
16gJ 16d 16B'/	.	.	.	.	.
8g 8d 8B'/	.	.	.	.	.
.	.	.	(16dddL 16dd\	.	>
8gJ 8d 8B'/	.	.	16eeen 16een\	.	.
.	.	.	16dddJJ 16dd\)	.	.
*	*	*	*Xped	*	*
*clefF4	*	*	*	*	*
=23	=23	=23	=23	=23	=23
8AAL 8AAA\	.	.	8.fffL 8.ff\	.	f
8f 8c 8A\	.	.	.	.	.
.	.	.	16cccL 16cc\	.	.
8AAJ 8AAA\	.	.	16ccc 16cc\	.	.
.	.	.	16ccc#XJJ 16cc#X\	.	.
!	!	!	!	!LO:TX:t=cres-cen-do:dur=4qe:ext=ud:problem:text with extention lines	!
8BB-L 8BBB-\	.	.	16ccc#KL 16cc#\	.	<
.	.	.	8eeeJ 8ee\	.	.
8g 8d 8B-\	.	.	.	.	.
.	.	.	16dddLL 16dd\	.	.
8BBnJ 8BBBn\	.	.	16ccc# 16cc#\	.	.
.	.	.	16dddJJ 16dd\	.	.
=24	=24	=24	=24	=24	=24
8CL 8CC\	.	.	16dddKL 16dd\	.	.
.	.	.	8fffJ 8ff\	.	.
8g 8e 8c\	.	.	.	.	.
.	.	.	16eeeLL 16ee\	.	.
8C#XJ 8CC#X\	.	.	16ddd#X 16dd\	.	.
.	.	.	16eeeJJ 16ee\	.	.
8DL 8DD\	.	.	16eeeKL 16ee\	.	.
.	.	.	8gggJ 8gg\	.	.
8a 8f 8d\	.	.	.	.	.
.	.	.	16fffLL 16ff\	.	.
8DJ 8DD\	.	.	16eee 16ee\	.	.
.	.	.	16fffJJ 16ff\	.	[[
=25	=25	=25	=25	=25	=25
*	*	*	*8va	*	*
*ped	*	*	*	*	*
8E 8EE/	.	.	16gggKL 16gg\	.	ff
.	.	.	8bbb- 8bb-\	.	.
*clefG2	*	*	*	*	*
8gL 8e/	.	.	.	.	.
.	.	.	16bbb-L 16bb-\	.	.
8ccJ 8g/	.	.	16bbb- 16bb-\	.	.
.	.	.	16bbb-JJ 16bb-\	.	.
8gL 8e/	.	.	16bbb-LL 16bb-'\	.	.
.	.	.	16bbb- 16bb-'\	.	.
8cc 8g/	.	.	16bbb- 16bb-'\	.	.
.	.	.	16bbb- 16bb-'\	.	.
8gJ 8e/	.	.	16bbb- 16bb-'\	.	.
.	.	.	16bbb-JJ 16bb-'\	.	.
*	*	*	*X8va	*	*
*clefF4	*	*	*	*	*
*Xped	*	*	*	*	*
!!LO:LB:g=original
=26	=26	=26	=26	=26	=26
8F 8FF\	.	.	16bb-LL 16b-^\	.	.
*	*	*	*8va	*	*
.	.	.	(16aaa 16aa\	.	.
8AL 8F\	.	.	16ggg 16gg\	.	.
.	.	.	16fff 16ff\	.	.
8c 8A\	.	.	16eee 16ee\	.	.
.	.	.	16fffJJ 16ff\)	.	.
8f 8c 8A\	.	.	16gggLL 16gg^\	.	<
.	.	.	(16fff 16ff\	.	.
8c 8A\	.	.	16eee 16ee\	.	.
.	.	.	16fff 16ff\	.	[ >
8AJ 8F\	.	.	16ccc 16cc\	.	.
.	.	.	16aaJJ 16a\)	.	]]
*	*	*	*X8va	*	*
=27	=27	=27	=27	=27	=27
8G 8GG\	.	.	8.aaL 8.a^^\	.	sfz
8BnL 8G\	.	.	.	.	.
.	.	.	(16ggL 16g\	5	.
8d 8B\	.	.	16ff#X 16f#X\	4	.
.	.	.	16ggJJ 16g\)	.	.
8f 8d\	.	.	(16ff#LL 16f#\	.	<
.	.	.	16gg 16g\	.	.
8B 8G\	.	.	16bbn 16bn\	5	.
.	.	.	16aa 16a\	5	.
8dJ 8B\	.	.	16gg 16g\	.	.
.	.	.	16ffnJJ 16fn\)	.	[[
=28	=28	=28	=28	=28	=28
16C 16CC\	.	.	8ee 8e\	.	.
16GLL 16GG'\	.	.	.	.	.
!	!	!	!LO:TX:b:t=con brio	!	!
16A 16AA'\	.	.	8r	.	.
16Bn 16BBn'\	.	.	.	.	.
16c 16C'\	.	.	8r	.	.
16dJJ 16D'\	.	.	.	.	.
16eLL 16E^\	.	.	8r	.	.
(16d 16D'\	.	.	.	.	.
16c 16C'\	.	.	8ggL 8ee 8cc 8g'\	.	.
16B 16BB'\	.	.	.	.	.
16A 16AA'\	.	.	8ggJ 8ee 8cc 8g'\	.	.
16GJJ 16GG'\)	.	.	.	.	.
=29	=29	=29	=29	=29	=29
16F#XLL 16FF#X'/	.	sf	8r	.	.
16F# 16FF#'/	.	.	.	.	.
(16F# 16FF#/	.	.	4aa 4ee-X 4cc 4a\	.	sfz
16A 16AA/)	.	.	.	.	.
16G 16GG'/	.	.	.	.	.
16F#JJ 16FF#'/	.	.	.	.	.
16FnLL 16FFn'/	.	sf	8r	.	.
16F 16FF'/	.	.	.	.	.
(16F 16FF/	.	.	4aa-X 4dd 4bn 4a-X\	.	sfz
16A-X 16AA-X/)	.	.	.	.	.
16G 16GG'/	.	.	.	.	.
16FJJ 16FF'/	.	.	.	.	.
!!LO:LB:g=original
=30	=30	=30	=30	=30	=30
16ELL 16EE'\	.	.	8r	.	.
16G 16GG'\	.	.	.	.	.
!	!	!	!LO:TX:b:t=sempre forte	!	!
16A 16AA'\	.	.	8ggL 8een 8cc 8g'\	.	.
16Bn 16BBn'\	.	.	.	.	.
16c 16C'\	.	.	8ggJ 8ee 8cc 8g'\	.	.
16dJJ 16D'\	.	.	.	.	.
(16eLL 16E\	.	.	8r	.	.
16d 16D\)	.	.	.	.	.
16c 16C'\	.	.	8ggL 8ee 8cc 8g'\	.	.
16B 16BB'\	.	.	.	.	.
16A 16AA'\	.	.	8ggJ 8ee 8cc 8g'\	.	.
16GJJ 16GG'\	.	.	.	.	.
=31	=31	=31	=31	=31	=31
16F#XLL 16FF#X'/	.	.	8r	.	.
16F# 16FF#'/	.	.	.	.	.
(16F# 16FF#^/	.	.	4aan 4ee-X 4cc 4an^\	.	.
16A 16AA/)	.	.	.	.	.
16G 16GG'/	.	.	.	.	.
16F#JJ 16FF#'/	.	.	.	.	.
16FnLL 16FFn'/	.	.	8r	.	.
16F 16FF'/	.	.	.	.	.
(16F 16FF^/	.	.	4aa-X 4dd 4bn 4a-X^\	.	.
16A-X 16AA-X/)	.	.	.	.	.
16G 16GG'/	.	.	.	.	.
16FJJ 16FF'/	.	.	.	.	.
=32	=32	=32	=32	=32	=32
16ELL 16EE'\	.	.	8r	.	.
16G 16GG'\	.	.	.	.	.
16A 16AA'\	.	.	8ggL 8een 8cc 8g^\	.	.
16Bn 16BBn'\	.	.	.	.	.
16c 16C'\	.	.	8ggJ 8ee 8cc 8g^\	.	.
16dJJ 16D'\	.	.	.	.	.
(16eLL 16E\	.	.	8r	.	.
16d 16D\)	.	.	.	.	.
16c 16C'\	.	.	8ggL 8ee 8cc 8g\	.	.
16B 16BB'\	.	.	.	.	.
16A 16AA'\	.	.	8ggJ 8ee 8cc 8g\	.	.
16GJJ 16GG'\	.	.	.	.	.
=33	=33	=33	=33	=33	=33
8D 8DD\	.	.	16r	.	.
*	*	*	*ped	*	*
.	.	.	16ff#XLL 16f#X'\	.	.
(8F#XL 8D\	.	.	16ff# 16f#'\	.	.
.	.	.	16ff# 16f#'\	.	<
8A 8F#\	.	.	16ff# 16f#'\	.	.
.	.	.	16ggJJ 16g'\	.	.
8c 8A\	.	.	16aaLL 16a'\	.	.
.	.	.	16bbn 16bn'\	.	.
8A 8F#\	.	.	16ccc 16cc'\	.	.
*	*	*	*Xped	*	*
.	.	.	16ddd 16dd'\	.	.
8AJ 8D\)	.	.	16eee 16ee'\	.	.
.	.	.	16fff#XJJ 16ff#X'\	.	[[
!!LO:LB:g=original
=34	=34	=34	=34	=34	=34
*	*	*	*ped	*	*
!	!	!	!LO:TX:b:t=dolce	!	!
8GG 8GGG/	.	.	2.ggg 2.gg\	.	fp
(8BnL 8G\	.	.	.	.	.
8d 8B\	.	.	.	.	.
8g 8d 8B\	.	.	.	.	.
8d 8B\	.	.	.	.	.
8BJ 8G\)	.	.	.	.	.
*	*	*	*Xped	*	*
=35	=35	=35	=35	=35	=35
*	*	*	*8va	*	*
!	!	!	!LO:TX:b:t=con grazio	!	!
*	*	*	*ped	*	*
8E-X 8EE-X/	.	.	[4.ggg [4.gg\	.	p
(8e-XL 8B-X 8G\	.	.	.	.	.
8gJ 8e- 8B-\)	.	.	.	.	.
*	*	*	*Xped	*	*
8BB-X 8BBB-X/	.	.	(16ggg]LL 16gg\]	.	.
*	*	*	*ped	*	*
.	.	.	16fff 16ff\	.	.
(8dL 8B- 8F\	.	.	16eee 16ee\	.	.
.	.	.	16fff 16ff\	.	.
8a-XJ 8d 8B-\)	.	.	16ggg 16gg\	.	.
.	.	.	16fffJJ 16ff\)	.	.
*	*	*	*Xped	*	*
=36	=36	=36	=36	=36	=36
*	*	*	*ped	*	*
8E-X 8EE-X/	.	.	16eee-XLL 16ee-X'\	.	.
.	.	.	16ggg 16gg'\	.	.
(8B-XL 8G\	.	.	16aaa-X 16aa-X'\	.	.
.	.	.	16bbb-X 16bb-X'\	.	.
8e-X 8B- 8G\	.	.	16cccc 16ccc'\	.	.
.	.	.	16ddddJJ 16ddd'\	.	.
8g 8e- 8B-\	.	.	8eeee-X 8eee-'\	.	f
8e- 8B- 8G\	.	.	8r	.	.
8B-J 8G\)	.	.	8r	.	.
*	*	*	*Xped	*	*
=37	=37	=37	=37	=37	=37
*	*	*	*ped	*	*
8C 8CC/	.	.	[4.eee-X [4.ee-X/	.	.
*clefG2	*	*	*	*	*
8e-XL 8c 8G/	.	.	.	.	.
8gJ 8e- 8c/	.	.	.	.	.
*	*	*	*Xped	*	*
*clefF4	*	*	*	*	*
*	*	*	*ped	*	*
8GG 8GGG/	.	.	(16eee-]LL 16ee-/]	.	.
.	.	.	16ddd 16dd/	.	.
*clefG2	*	*	*	*	*
8fL 8G/	.	.	16ccc#X 16cc#X/	.	.
.	.	.	16ddd 16dd/	.	.
8bn:J 8f: 8G:/	.	.	16eee- 16ee-/	.	.
.	.	.	16dddJJ 16dd/)	.	.
*clefF4	*	*	*	*	*
=38	=38	=38	=38	=38	=38
*	*	*	*ped	*	*
8C 8CC/	.	.	16cccnLL 16ccn'\	.	.
.	.	.	16eee-X 16ee-X'\	.	.
*clefG2	*	*	*	*	*
(8e-XL 8c 8G/	.	.	16fff 16ff'\	.	.
.	.	.	16ggg 16gg'\	.	.
8gJ 8e- 8c/	.	.	16aaan 16aan'\	.	.
.	.	.	16bbbnJJ 16bbn'\	.	.
8ccL 8g 8e-/	.	.	8cccc 8ccc'\	.	sf
*	*	*	*X8va	*	*
8g 8e- 8c/	.	.	8r	.	.
8e-J 8c 8G/)	.	.	8r	.	.
*clefF4	*	*	*	*	*
*	*	*	*Xped	*	*
!!LO:LB:g=original
=39	=39	=39	=39	=39	=39
*	*	*	*ped	*	*
8AA-X 8AAA-X/	.	.	4.ccc 4.cc\	.	fp
*clefG2	*	*	*	*	*
(8e-XL 8c 8A-X/	.	.	.	.	.
8e-J 8c/	.	.	.	.	.
8f#XL 8e- 8c^/	.	.	(16dddLL 16dd\	.	>
.	.	.	16ccc 16cc\	.	.
8e- 8c/	.	.	16bbn 16bn\	.	.
.	.	.	16ccc 16cc\	.	.
8e-J 8c 8A-/)	.	.	16ddd 16dd\	.	.
.	.	.	16cccJJ 16cc\)	.	]]
*clefF4	*	*	*	*	*
*	*	*	*Xped	*	*
=40	=40	=40	=40	=40	=40
*	*	*	*ped	*	*
8GG 8GGG/	.	.	16r	.	.
.	.	.	16bbnLL 16bn'\	.	.
*clefG2	*	*	*	*	*
(8BnL 8G/	.	.	16bb 16b'\	.	.
.	.	.	16bb 16b'\	.	.
8dJ 8B/	.	.	16bb 16b'\	.	.
.	.	.	16dddJJ 16dd'\	.	.
8bn 8d 8G/)	.	.	16fffLL 16ff\	5	.
.	.	.	(16aaa-X 16aa-X\	4	.
8r	.	.	16ggg 16gg\)	5	.
.	.	.	16fff 16ff\	.	.
8r	.	.	16eee-X 16ee-X\	.	.
.	.	.	16dddJJ 16dd\	.	.
*clefF4	*	*	*	*	*
*	*	*	*Xped	*	*
=41	=41	=41	=41	=41	=41
*^	*	*	*	*	*
*	*	*	*	*ped	*	*
8ryy	8AA-X 8AAA-X/	.	.	[4.ccc [4.cc\	.	.
*clefG2	*	*	*	*	*	*
8ryy	8cL 8A-X/	.	.	.	.	.
!	!LO:TX:a:t=ten	!	!	!	!	!
8ryy	8e-XJ 8c 8A-/	.	.	.	.	.
4.f/	8f#X\L	.	.	16ccc]LL 16cc\]	.	.
.	.	.	.	16ccc 16cc\	.	.
.	8e- 8c\	.	.	16bbn 16bn\	4	.
.	.	.	.	16ccc 16cc\	5	.
.	8cJ 8A-\	.	.	16.ddd 16.dd\	.	.
.	.	.	.	32cccJJk 32cc\	.	.
*clefF4	*	*	*	*	*	*
*	*	*	*	*Xped	*	*
=42	=42	=42	=42	=42	=42	=42
8ryy	8GG\	.	.	(4ccc (4cc^\	5	.
*clefG2	*	*	*	*	*	*
8ryy	8BnL 8G/	.	.	.	.	.
8ryy	8gJ 8d 8B/	.	.	8bbn 8bn\))	4	.
!	!	!	!	!LO:TX:b:t=ten	!	!
4.f/	8f#X\L	.	.	16bbLL 16b\	.	sf
.	.	.	.	16ccc 16cc\	.	.
.	8e-X 8c\	.	.	16bb 16b\	.	.
.	.	.	.	16ccc 16cc\	.	.
.	8A-X\J	.	.	16.eee-X 16.ee-X\	.	.
.	.	.	.	32cccJJk 32cc\	.	.
*clefF4	*	*	*	*	*	*
=43	=43	=43	=43	=43	=43	=43
8ryy	8GG/	.	.	(4ccc (4cc\	5	sf >
*clefG2	*	*	*	*	*	*
8ryy	8BnL 8G/	.	.	.	.	.
8ryy	8gJ 8d 8B/	.	.	[8bbn [8bn\))	.	]
*	*	*	*	*ped	*	*
4.f/	8f#X\L	.	.	16bb]LL 16b\]	.	.
.	.	.	.	16ccc 16cc\	.	.
!	!	!	!	!LO:TX:b:t=rallentendo ed	!	!
.	8e-X 8c\	.	.	16bb 16b\	.	.
.	.	.	.	16ccc 16cc\	.	.
.	8A-X\J	.	.	32.fff#XL 32.ff#X^^\	5	.
.	.	.	.	64eee-XK 64ee-X\	4	.
.	.	.	.	32ddd 32dd^^\	5	.
.	.	.	.	32cccJJJ 32cc\	5	.
*v	*v	*	*	*	*	*
*clefF4	*	*	*	*	*
*	*	*	*Xped	*	*
!!LO:PB:g=original
=44	=44	=44	=44	=44	=44
!	!	!	!LO:TX:b:t=espressivo	!	!
8G 8GG\	.	.	(4ccc (4cc^^\	.	.
*clefG2	*	*	*	*	*
8BnL 8G/	.	.	.	.	.
8fJ 8d 8G/	.	.	8bbn 8bn\))	.	.
*clefF4	*	*	*	*	*
*	*	*	*ped	*	*
8en 8B-X 8G 8C\	.	.	(16bb-XLL 16b-X'\	4	.
.	.	.	16bb- 16b-'\	.	.
8r	.	.	16bb- 16b-'\	.	.
.	.	.	16ddd 16dd'\	.	5
8r	.	.	16ccc 16cc'\	.	5
.	.	.	16bb-JJ 16b-'\)	.	4
*	*	*	*Xped	*	*
=45	=45	=45	=45	=45	=45
8F 8FF\	.	.	16aaLL 16a'\	.	p
!	!	!	!LO:TX:b:t=tempo I	!	!
.	.	.	16ccc 16cc'\	.	.
8AL 8F\	.	.	16ddd 16dd'\	.	.
.	.	.	16eee 16ee'\	.	.
8c 8A\	.	.	16fff 16ff'\	.	.
.	.	.	16gggJJ 16gg'\	.	.
8f 8c\	.	.	16aaaLL 16aa^\	.	>
.	.	.	16ggg 16gg'\	.	.
8c 8A\	.	.	16fff 16ff'\	.	.
.	.	.	16eee 16ee'\	.	.
8AJ 8F\	.	.	16ddd 16dd'\	.	.
.	.	.	16cccJJ 16cc'\	.	]]
=46	=46	=46	=46	=46	=46
8G 8GG\	.	.	16bbnLL 16bn'^\	.	.
.	.	.	16bb 16b'\	.	.
8dL 8G\	.	.	16bb 16b'\	.	.
.	.	.	16bb 16b'\	.	.
8fJ 8d 8G\	.	.	16bb 16b'\	.	.
.	.	.	16bbJJ 16b'\	.	.
8C 8CC\	.	.	16bb-XLL 16b-X'^\	.	.
.	.	.	16bb- 16b-'\	.	.
8cL 8B- 8G\	.	.	16bb- 16b-'\	.	.
.	.	.	(16ddd 16dd\	.	.
8eJ 8c 8B-^\	.	.	16ccc 16cc\	.	.
.	.	.	16bb-JJ 16b-\)	.	.
=47	=47	=47	=47	=47	=47
8F 8FF\	.	.	16aaLL 16a'\	.	<
.	.	.	16ccc 16cc'\	.	.
8AL 8F\	.	.	16ddd 16dd'\	.	.
.	.	.	16eee 16ee'\	.	.
8c 8A\	.	.	16fff 16ff'\	.	.
.	.	.	16gggJJ 16gg'\	.	.
8f 8c\	.	.	16aaaLL 16aa'\	.	[ >
.	.	.	16ggg 16gg'\	.	.
8c 8A\	.	.	16fff 16ff'\	.	.
.	.	.	16eee 16ee'\	.	.
8AJ 8F\	.	.	16ddd 16dd'\	.	.
.	.	.	16cccJJ 16cc'\	.	]]
!!LO:LB:g=original
=48	=48	=48	=48	=48	=48
8G 8GG\	.	.	(16bn\LL	.	.
.	.	.	16b\	.	p
8dL 8Bn 8G\	.	.	16dd\	.	.
!	!	!	!LO:TX:b:t=lusingando	!	!
.	.	.	16ff\	.	.
8fJ 8d 8B\	.	.	16aa\	.	.
.	.	.	16aa\JJ)	.	.
8C 8CC\	.	.	(16aa\LL	.	.
.	.	.	16gg\	.	.
8cL 8B-X 8G\	.	.	16ee\	.	.
.	.	.	16cc\	.	.
8eJ 8c\	.	.	16cc 16b-X\)	.	.
.	.	.	16ccJJ 16b-\	.	.
=49	=49	=49	=49	=49	=49
8F 8FF\	.	.	(16a\LL	.	.
.	.	.	16a\	.	.
8e-XL 8c 8G\	.	.	16cc\	.	.
.	.	.	16ee-X\)	.	.
8fJ 8e- 8c\	.	.	16gg'\	.	.
.	.	.	16gg'\JJ	.	.
8BB-X 8BBB-X\	.	.	16gg\LL	.	.
.	.	.	(16ff\	.	.
8dL 8B- 8F\	.	.	16dd\	.	.
.	.	.	16b-\)	.	.
8b-J 8f 8d\	.	.	16f'\	.	.
.	.	.	16f'\JJ	.	.
=50	=50	=50	=50	=50	=50
8A 8AA\	.	.	16r	.	f
*	*	*	*ped	*	*
.	.	.	16ccc#XLL 16cc#X'\	.	.
8c#XL 8A\	.	.	16ccc# 16cc#'\	.	.
.	.	.	16ccc# 16cc#'\	.	.
8en 8c# 8A\	.	.	16ccc# 16cc#'\	.	.
.	.	.	16eeeJJ 16ee'\	.	.
*	*	*	*8va	*	*
8a 8en 8c#X\	.	.	16gggLL 16gg'\	.	.
.	.	.	16bbb- 16bb-'\	.	.
8e 8c#\	.	.	16aaa 16aa'\	.	.
.	.	.	16ggg 16gg'\	.	.
8c#J 8A\	.	.	16fff 16ff'\	.	.
.	.	.	16eeeJJ 16ee'\	.	.
*	*	*	*Xped	*	*
=51	=51	=51	=51	=51	=51
*	*	*	*ped	*	*
8F 8FF/	.	.	2.dd 2.d/	.	.
*	*	*	*X8va	*	*
(8dL 8A'\	.	.	.	.	.
8fJ 8d'\	.	.	.	.	.
8aL 8f 8d'\	.	.	.	.	.
8f 8d'\	.	.	.	.	.
8fJ 8d 8A'\)	.	.	.	.	.
*	*	*	*Xped	*	*
=52	=52	=52	=52	=52	=52
!	!	!	!LO:TX:b:t=sotto voce	!	!
8AA 8AAA\	.	.	16r	.	.
.	.	.	16c#XLL 16A'/	.	.
8C#XL 8AA\	.	.	16c# 16A'/	.	.
.	.	.	16c# 16A'/	.	.
8EJ 8C# 8AA\	.	.	16c# 16A'/	.	.
.	.	.	16eJJ 16c#'/	.	.
8c#X^\L	.	.	16gLL 16e'/	.	.
.	.	.	(16b- 16g/	.	.
!	!	!	!LO:TX:b:t=riten	!	!
8A\	.	.	16a 16f/	.	.
.	.	.	16g 16e/	.	.
8AA\J	.	.	16f 16d/	.	.
.	.	.	16eJJ 16c#/)	.	.
!!LO:LB:g=original
=53	=53	=53	=53	=53	=53
8DL 8DD/	.	.	[4.f [4.d/	.	.
8A 8F/	.	.	.	.	.
*clefG2	*	*	*	*	*
8ddJ 8a/	.	.	.	.	.
*clefF4	*	*	*	*	*
8BBn 8BBBn/	.	.	16f]LL 16d\]	.	f
.	.	.	16eee 16ee\	.	.
*clefG2	*	*	*	*	*
8a-XL 8f 8d/	.	.	16fff 16ff'\	.	.
.	.	.	16eee 16ee'\	.	.
8fJ 8d 8Bn/	.	.	16fff 16ff'\	.	.
.	.	.	16gggJJ 16gg'\	.	.
*clefF4	*	*	*	*	*
=54	=54	=54	=54	=54	=54
*	*	*	*8va	*	*
*	*	*	*ped	*	*
8C 8CC/	.	.	[4.aaa 4.aa\	.	f
*clefG2	*	*	*	*	*
8fL 8c 8A/	.	.	.	.	.
8aJ 8f 8c/	.	.	.	.	.
*	*	*	*Xped	*	*
8cc 8g 8e 8B-X/	.	.	16aaa]LL 16aa\	.	f
!	!	!	!LO:TX:b:t=martelato	!	!
*	*	*	*ped	*	*
.	.	.	16ggg 16gg'\	.	.
8r	.	.	16aaa 16aa'\	.	.
.	.	.	16ggg 16gg'\	.	.
8r	.	.	16aaa 16aa'\	.	.
.	.	.	16bbb-JJ 16bb-'\	.	.
*	*	*	*Xped	*	*
*clefF4	*	*	*	*	*
=55	=55	=55	=55	=55	=55
*	*	*	*ped	*	*
8AA 8AAA/	.	.	[4.cccc [4.ccc\	.	f
*clefG2	*	*	*	*	*
8fL 8c 8A/	.	.	.	.	.
8aJ 8f 8c/	.	.	.	.	.
8cc: 8f: 8A-X:/	.	.	16cccc]LL 16ccc\]	.	f
.	.	.	16bbb- 16bb-'\	.	.
8r	.	.	16cccc 16ccc'\	.	.
.	.	.	16bbb- 16bb-'\	.	.
8r	.	.	16cccc 16ccc'\	.	.
.	.	.	16ddddJJ 16ddd'\	.	.
*clefF4	*	*	*	*	*
=56	=56	=56	=56	=56	=56
!LO:TX:a:t=P:problem:mixed beam	!	!	!LO:TX:a:t=ten	!	!
*	*	*	*ped	*	*
8GGL 8GGG/	.	.	4.eeee-X 4.eee-X/	.	sf
8e-X> 8c> 8G>\	.	.	.	.	.
*	*	*	*Xped	*	*
8g>J 8e-> 8c>\	.	.	.	.	.
!LO:TX:a:t=P:problem:mixed beam	!	!	!	!	!
*	*	*	*ped	*	*
8GGL 8GGG/	.	.	4.dddd 4.ddd/	.	>]
8d> 8B>n 8G>\	.	.	.	.	.
8bn>J 8d> 8G>\	.	.	.	.	.
*	*	*	*Xped	*	*
=57	=57	=57	=57	=57	=57
8GG 8GGG/	.	.	16r	.	pp
.	.	.	(16dddLL 16bb-X\	.	.
!	!	!	!LO:TX:b:t=con sordino	!	!
8dL 8B- 8G\	.	.	16ddd 16bb-\	.	.
.	.	.	16ggg 16ddd'\)	.	.
8gJ 8d 8B-\	.	.	16bbb- 16ggg'\	.	.
.	.	.	16bbb-JJ 16ggg'\	.	.
8D 8DD/	.	.	(16bbb-LL 16ddd\	.	.
.	.	.	16aaa 16fff#X\	.	.
*clefG2	*	*	*	*	*
(8f#XL 8d 8A/	.	.	16fff# 16ddd\)	.	.
.	.	.	16ddd 16aa'\	.	.
8ddJ 8f#/)	.	.	16ddd 16aa'\	.	.
.	.	.	16dddJJ 16aa'\	.	.
*clefF4	*	*	*	*	*
!!LO:LB:g=original
=58	=58	=58	=58	=58	=58
8E-X 8EE-X\	.	.	16r	.	.
*	*	*	*ped	*	*
.	.	.	16bb-LL 16gg'\	.	.
(8eL 8B-X 8G\	5 3 2	.	(16bb- 16gg\	.	.
.	.	.	16eee-X 16bb-\)	.	.
8gJ 8e 8B-\)	3 2 1	.	16ggg 16eee-'\	.	.
*	*	*	*Xped	*	*
.	.	.	16gggJJ 16eee-'\	.	.
*	*	*	*ped	*	*
8BB- 8BBB-\	.	.	(16gggLL 16eee-\	.	.
.	.	.	16fff 16ddd\)	.	.
(8dL 8B- 8F\	.	.	16ddd 16bb-'\	.	.
.	.	.	16bb- 16ff'\	.	.
8b-J 8d 8B-\)	.	.	16bb- 16ff'\	.	.
.	.	.	16bb-JJ 16ff'\	.	.
*	*	*	*Xped	*	*
*	*	*	*X8va	*	*
=59	=59	=59	=59	=59	=59
8C 8CC\	.	.	16r	.	f
.	.	.	16aaLL 16a\	.	.
8eL 8c\	.	.	16aa 16a\	.	.
.	.	.	16aa 16a\	.	.
8cJ 8A\	.	.	16aa 16a\	.	.
.	.	.	16cccJJ 16cc\	.	.
4A 4E 4C^\	.	.	16eeeLL 16ee\	.	.
.	.	.	16ggg 16gg\	.	.
.	.	.	16fff 16ff\	.	.
.	.	.	16eee 16ee\	.	.
8r	.	.	16ddd 16dd\	.	.
.	.	.	16cccJJ 16cc\	.	.
=60	=60	=60	=60	=60	=60
*^	*	*	*	*	*
!LO:TX:a:t=P:problem:mixed beam	!	!	!	!	!	!
8D/L	4D 4DD\	.	.	(4.bb-X (4.b-X/	.	.
8d 8B- 8G/	.	.	.	.	.	.
8gJ 8d 8B-/	8ryy	.	.	.	.	.
8DL 8DD\	8ryy	.	.	4.aa 4.a/))	.	.
8c 8A 8D\	8ryy	.	.	.	.	.
8f#XJ 8c 8D\	8ryy	.	.	.	.	.
*v	*v	*	*	*	*	*
=61	=61	=61	=61	=61	=61
!	!	!	!LO:TX:b:t=con forza	!	!
!	!	!	!LO:TX:a:t=ten	!	!
16r	.	.	2.gg 2.dd 2.b- 2.g\	.	.
16GLL 16GG'\	.	.	.	.	.
16G 16GG'\	.	.	.	.	.
16G 16GG'\	.	.	.	.	.
16B- 16BB-'\	.	.	.	.	.
16dJJ 16D'\	.	.	.	.	.
16g>LL 16G\	.	.	.	.	.
16b-> 16B-^\	.	.	.	.	.
16a> 16A\	.	.	.	.	.
16g> 16G'\	.	.	.	.	.
16f#X> 16F#X'\	.	.	.	.	.
16g>JJ 16G'\	.	.	.	.	.
=62	=62	=62	=62	=62	=62
!LO:TX:a:t=ten	!	!	!	!	!
4.fn 4.Fn\	.	sfz	16r	.	.
.	.	.	16ggLL 16g'\	.	.
.	.	.	16gg 16g'\	.	.
.	.	.	16gg 16g'\	.	.
.	.	.	16bb- 16b-'\	.	.
.	.	.	16dddJJ 16cc'\	.	.
*	*	*	*8va	*	*
(4.en 4.En\	.	sfz	16gggLL 16gg'\	.	.
.	.	.	16bbb- 16bb-^\	4	.
.	.	.	16aaa 16aa'\	5	.
.	.	.	16ggg 16gg'\	.	.
.	.	.	16fff#X 16ff#X'\	.	.
.	.	.	16gggJJ 16gg'\	.	.
!!LO:LB:g=original
=63	=63	=63	=63	=63	=63
(4.e-X 4.E-X\)	.	sfz	16r	.	.
.	.	.	16ggLL 16g'/	.	.
.	.	.	16gg 16g'/	.	.
.	.	.	16gg 16g'/	.	.
.	.	.	16bb- 16b-'/	.	.
.	.	.	16ccc#XJJ 16cc#X'/	.	.
4.d 4.D\)	.	sfz	16gggLL 16gg'\	.	.
.	.	.	16bbb- 16bb-\	4	.
.	.	.	16aaa 16aa\	.	.
.	.	.	16ggg 16gg'\	.	.
.	.	.	16fff 16ff'\	.	.
.	.	.	16gggJJ 16gg'\	.	.
=64	=64	=64	=64	=64	=64
(4.d-X 4.D-X\	.	sfz	16r	.	.
.	.	.	(16bbb-LL 16bb-^\	.	.
.	.	.	16aaa 16aa\)	.	.
.	.	.	16ggg 16gg'\	.	.
.	.	.	16fff#X 16ff#X'\	.	.
.	.	.	16gggJJ 16gg'\	.	.
4.c 4.C\)	.	.	16r	.	sfz
.	.	.	(16bbb-LL 16bb-^\	.	.
.	.	.	16aaa 16aa\)	.	.
.	.	.	16ggg 16gg'\	.	.
.	.	.	16fff# 16ff#'\	.	.
.	.	.	16gggJJ 16gg'\	.	.
=65	=65	=65	=65	=65	=65
[2.e: [2.B-: [2.G: [2.C:\	.	sfz	16r	.	.
*	*	*	*ped	*	*
.	.	.	16bbb-LL 16bb-^\	4	.
.	.	.	16aaa 16aa'\	5	.
.	.	.	16ggg 16gg'\	5	.
.	.	.	16fff#X 16ff#X'\	4	.
.	.	.	16gggJJ 16gg'\	5	.
.	.	.	16aaaLL 16aa'\	.	.
.	.	.	16bbb- 16bb-'\	.	.
.	.	.	16cccc 16ccc'\	.	.
.	.	.	16dddd 16ddd'\	.	.
.	.	.	16cccc 16ccc'\	.	.
.	.	.	16bbb-JJ 16bb-'\	.	.
=66	=66	=66	=66	=66	=66
4.e] 4.B-] 4.G] 4.C\]	.	.	16aaaLL 16aa'\	.	>
.	.	.	16ggg 16gg'\	.	.
.	.	.	16fff 16ff'\	.	.
.	.	.	16eee 16ee'\	.	.
.	.	.	16ddd 16dd'\	.	.
.	.	.	16cccJJ 16cc'\	.	.
4r	.	.	16ggggLL 16ggg\	.	.
.	.	.	32r	.	.
.	.	.	(32ffffK 32fff\	.	.
!	!	!	!LO:TX:b:t=rall	!	!
.	.	.	16eeee 16eee\	.	.
.	.	.	16dddd 16ddd\	.	.
8r	.	.	16cccc 16ccc\	.	.
.	.	.	16bbb-JJ 16bb-\)	.	.
*	*	*	*X8va	*	*
*	*	*	*Xped	*	*
!!LO:PB:g=original
=67	=67	=67	=67	=67	=67
!	!	!	!LO:TX:a:t=a tempo	!	!
8F 8FF\	.	.	16aaLL 16a'\	.	p
!	!	!	!LO:TX:b:t=e leggiero	!	!
.	.	.	16ccc 16cc'\	.	.
(8AL 8F\	.	.	16ddd 16dd'\	.	.
.	.	.	16eee 16ee'\	.	.
8c 8A\	.	.	16fff 16ff'\	.	.
.	.	.	16gggJJ 16gg'\	.	.
8f 8c\	.	.	(16aaaLL 16aa\	.	.
.	.	.	16ggg 16gg\)	.	.
8A 8F\	.	.	16fff 16ff'\	.	.
.	.	.	16eee 16ee'\	.	.
8cJ 8A\)	.	.	16ddd 16dd'\	.	.
.	.	.	16cccJJ 16cc'\	.	.
=68	=68	=68	=68	=68	=68
*	*	*	*ped	*	*
8G 8GG\	.	.	16bbnLL 16bn'^\	.	.
.	.	.	16bb 16b'\	.	.
8dL 8G\	.	.	16bb 16b'\	.	.
.	.	.	16bb 16b'\	.	.
8fJ 8d 8G\	.	.	16bb 16b'\	.	.
.	.	.	16bbJJ 16b'\	.	.
*	*	*	*Xped	*	*
8C 8CC\	.	.	16bb-XLL 16b-X'^\	.	.
.	.	.	16bb- 16b-'\	.	.
8cL 8B- 8G\	.	.	16bb- 16b-'\	.	.
.	.	.	(16ddd 16dd\	.	.
8eJ 8c\	.	.	16ccc 16cc\	.	.
.	.	.	16bb-JJ 16b-\)	.	.
=69	=69	=69	=69	=69	=69
8F 8FF\	.	.	16aaLL 16a'\	.	<
.	.	.	16ccc 16cc'\	.	.
8AL 8F\	.	.	16ddd 16dd'\	.	.
.	.	.	16eee 16ee'\	.	.
8c 8A\	.	.	16fff 16ff'\	.	.
.	.	.	16gggJJ 16gg\	.	.
8f 8c\	.	.	(16fffLL 16ff\	.	[ >
.	.	.	16eee 16ee\	.	.
8c 8A\	.	.	16ddd 16dd\	.	.
.	.	.	16ccc 16cc\	.	.
8AJ 8F\	.	.	16bb- 16b-\	.	.
.	.	.	16aaJJ 16a\)	.	]]
=70	=70	=70	=70	=70	=70
*	*	*	*ped	*	*
8B- 8BB-\	.	sf	16ggLL 16g'\	.	<
.	.	.	16gg 16g'\	.	.
8B-L 8G\	.	.	16gg 16g'\	.	.
.	.	.	16gg 16g'\	.	.
8d 8B- 8G\	.	.	16gg 16g'\	.	.
.	.	.	16aaJJ 16a'\	.	.
8g 8d 8B-\	.	.	16bb-LL 16b-'\	.	.
.	.	.	16ccc 16cc'\	.	.
8d 8B-\	.	.	16ddd 16dd'\	.	.
.	.	.	16eee 16ee'\	.	.
8B-J 8G\	.	.	16fff 16ff'\	.	.
.	.	.	16gggJJ 16gg'\	.	[[
*	*	*	*Xped	*	*
!!LO:LB:g=original
=71	=71	=71	=71	=71	=71
*	*	*	*ped	*	*
!	!	!	!LO:TX:a:t=ten	!	!
8C 8CC\	.	.	(4.aaa (4.aa\	.	f
8cL 8A\	.	.	.	.	.
8f 8c 8A\	.	.	.	.	.
!	!	!	!LO:TX:b:t=con anima	!	!
8a 8f 8c\	.	.	(16gggLL 16gg\))	.	.
.	.	.	16fff 16ff\	.	.
8f 8c\	.	.	16eee 16ee\)	.	.
.	.	.	16fff 16ff^\	.	.
8fJ 8c 8A\	.	.	16ccc 16cc\	.	.
.	.	.	32r	.	.
.	.	.	32aaJJk 32a\	.	.
*	*	*	*Xped	*	*
=72	=72	=72	=72	=72	=72
*	*	*	*ped	*	*
8BB-L 8BBB-\	.	.	(4.gg 4.g^\	.	sf <
*	*	*	*Xped	*	*
8d 8B- 8G\	.	.	.	.	.
*	*	*	*ped	*	*
8gJ 8d 8B-\	.	.	.	.	.
8CL 8CC\	.	.	4ccc 4cc^\)	.	.
8c 8B- 8G\	.	.	.	.	.
8eJ 8c\	.	.	8bb- 8b-\	4	[
*	*	*	*Xped	*	*
=73	=73	=73	=73	=73	=73
8AA 8EE 8CC#X 8AAA/	.	.	8aaL 8ee 8cc#X 8a\	.	fp
*clefG2	*	*	*	*	*
8c#XL 8A/	.	.	16aaL 16a'\	.	.
.	.	.	16aa 16a'\	.	.
8eJ 8c# 8A/	.	.	16aa 16a'\	.	<
.	.	.	16bbnJJ 16bn'\	.	.
8aL 8e 8c#/	.	.	16ccc#XLL 16cc#X'\	.	.
.	.	.	16ddd 16dd'\	.	.
8e 8c#/	.	.	16eee 16ee'\	.	.
.	.	.	16fff 16ff'\	.	.
8eJ 8c# 8A/	.	.	16ggg 16gg'\	.	.
.	.	.	16aaaJJ 16aa'\	.	[[
*clefF4	*	*	*	*	*
=74	=74	=74	=74	=74	=74
!LO:TX:a:t=P:problem:mixed beam	!	!	!	!	!
8DL 8DD/	.	.	(4.bbb- 4.bb-/	.	sf
8b-> 8f> 8d>\	.	.	.	.	.
8dd>J 8b>- 8f>\	.	.	.	.	.
!LO:TX:a:t=P:problem:mixed beam	!	!	!	!	!
8D-XL 8DD-X/	.	.	4.bbbn) 4.bbn/)	.	.
8bn> 8a-X> 8d-X>\	.	.	.	.	.
8ff>:J 8b>: 8a>-: 8d->:\	.	.	.	.	.
=75	=75	=75	=75	=75	=75
8C 8CC/	.	.	8ccc: 8aa: 8ff: 8cc:\	.	ff
*	*	*	*8va	*	*
!	!	!	!LO:TX:b:t=con impeto	!	!
16cc\LL	.	.	16aaaLL 16eee/	1 4	.
16cc\	.	.	16aaa 16eee/	1 4	.
16dd\	.	.	16bbb- 16fff/	2 5	.
16cc\JJ	.	.	16aaaJJ 16eee/	1 4	.
16ddLL 16b-\	.	.	16ggg/LL	2 5	.
16cc 16a\	.	.	16fff/	.	1 4
16b- 16g\	.	.	16eee/	.	2 5
16a 16f\	.	.	16ddd/	1 4	.
16g 16e\	.	.	16ccc/	2 5	.
16fJJ 16d\	.	.	16bb-/JJ	1 4	.
!!LO:LB:g=original
=76	=76	=76	=76	=76	=76
16e>LL 16c>\	.	.	16aa/LL	.	f
16f> 16d>\	.	.	16bb-/	.	.
16g> 16e>\	.	.	16ccc/	.	.
16a> 16f>\	.	.	16ddd/	.	.
16g> 16e>\	.	.	16ccc/	.	.
16f>JJ 16d>\	.	.	16bb-/JJ	.	.
16ee>LL 16cc>\	.	.	16aa/LL	.	>
16dd> 16b->\	.	.	16gg/	.	.
16cc> 16a>\	.	.	16ff/	.	.
16b-> 16g>\	.	.	16ee/	.	.
16a> 16f>\	.	.	16dd/	.	.
16g>JJ 16e>\	.	.	16cc/JJ	.	]]
=77	=77	=77	=77	=77	=77
*	*	*	*X8va	*	*
(8f>L 8d>\	.	.	(8bn/L	.	p
!	!	!	!LO:TX:b:t=e legato tutto	!	!
8a-X> 8d>\	.	.	8ff 8b/	.	.
8a-> 8c>\	.	.	8cc/	.	.
8g> 8Bn>\	.	.	8dd/	.	.
8g> 8B-X>\	.	.	8gg/	.	.
8cc>J 8G>\	.	.	8ee/J	.	.
=78	=78	=78	=78	=78	=78
8A\L	.	.	8ffL 8f/	.	.
8F\	.	.	8cc 8a/	.	.
8F#X\	.	.	8dd 8d/	.	.
8G\	.	.	8b- 8g/	.	.
8E\	.	.	8cc 8c/	.	.
[8Fn\J	.	.	8aJ 8f/	.	.
=79	=79	=79	=79	=79	=79
*^	*	*	*	*	*
4.F/]	8D\L	.	.	8b-L 8B-/	.	.
!	!	!	!	!LO:TX:b:t=cantabile rall	!	!
.	8BB-\	.	.	8g 8f/	.	.
.	8BBn\J	.	.	8ddJ 8g 8f 8d/	.	.
4ryy	4C/	.	.	4cc 4a 4f 4c^/	.	.
8r)yy	8CC/	.	.	8e 8B-/)	.	.
*v	*v	*	*	*	*	*
=80	=80	=80	=80	=80	=80
16FF 16FFF\	.	.	4f 4c 4A/	.	p
16cLL 16C'\	.	.	.	.	.
16d 16D'\	.	.	.	.	.
16e 16E'\	.	.	.	.	.
16f 16F'\	.	.	8r	.	.
16gJJ 16G'\	.	.	.	.	.
(16aLL 16A\	.	.	8r	.	.
16g 16G\)	.	.	.	.	.
16f 16F'\	.	.	8aaL 8ff 8a'\	.	.
16e 16E'\	.	.	.	.	.
16d 16D'\	.	.	8aaJ 8ff 8cc 8a'\	.	.
16cJJ 16C'\	.	.	.	.	.
!!LO:LB:g=original
=81	=81	=81	=81	=81	=81
16BnLL 16BBn^\	.	.	8r	.	.
16B 16BB\	.	.	.	.	.
16B 16BB\	.	.	4gg 4ff 4dd 4g^\	.	.
16B 16BB\	.	.	.	.	.
16B 16BB\	.	.	.	.	.
16BJJ 16BB\	.	.	.	.	.
16B-XLL 16BB-X^\	.	.	8r	.	.
16B- 16BB-\	.	.	.	.	.
16B- 16BB-\	.	.	4gg 4ee 4g^\	.	.
(16d-X 16D-X\	4	.	.	.	.
16c 16C\	5	.	.	.	.
16B-JJ 16BB-\)	4	.	.	.	.
=82	=82	=82	=82	=82	=82
(16ALL 16AA\	.	.	8r	.	<
16c 16C\)	.	.	.	.	.
!	!	!	!LO:TX:b:t=poco cres	!	!
16d 16D'\	.	.	8aaL 8ff 8cc 8a'\	.	.
16e 16E'\	.	.	.	.	.
16f 16F'\	.	.	8aaJ 8ff 8cc 8a'\	.	.
16gJJ 16G'\	.	.	.	.	.
(16aLL 16A\	.	.	8r	.	.
16g 16G\)	.	.	.	.	.
16f 16F'\	.	.	8aaL 8ff 8cc 8a'\	.	.
16e 16E'\	.	.	.	.	.
16d 16D'\	.	.	8aaJ 8ff 8cc 8a'\	.	[[
16cJJ 16C'\	.	.	.	.	.
=83	=83	=83	=83	=83	=83
16BnLL 16BBn^\	.	.	8r	.	.
16B 16BB\	.	.	.	.	.
16B 16BB\	.	.	4gg 4ff 4dd 4g\	.	.
16B 16BB\	.	.	.	.	.
16B 16BB\	.	.	.	.	.
16BJJ 16BB\	.	.	.	.	.
16B-XLL 16BB-X\	.	.	8r	.	.
16B- 16BB-\	.	.	.	.	.
16B- 16BB-\	.	.	4gg 4ee 4g\	.	.
(16d-X 16D-X\	.	.	.	.	.
16c 16C\	.	.	.	.	.
16B-JJ 16BB-\)	.	.	.	.	.
=84	=84	=84	=84	=84	=84
*	*	*	*8va	*	*
16ALL 16AA\	.	.	16r	.	.
16c 16C\	.	.	16cccLL 16cc/	.	f <
!	!	!	!LO:TX:b:t=strepitoso	!	!
16d 16D\	.	.	16ddd 16dd/	.	.
16e 16E\	.	.	16eee 16ee/	.	.
16f 16F\	.	.	16fff 16ff/	.	.
16gJJ 16G\	.	.	16gggJJ 16gg/	.	.
16aLL 16A\	.	.	16aaaLL 16aa\	.	[ >
16g 16G\	.	.	16ggg 16gg\	.	.
16f 16F\	.	.	16fff 16ff\	.	.
16e 16E\	.	.	16eee 16ee\	.	.
16d 16D\	.	.	16ddd 16dd\	.	.
16cJJ 16C\	.	.	16cccJJ 16cc\	.	]]
!!LO:LB:g=original
=85	=85	=85	=85	=85	=85
16BnLL 16BBn\	.	.	16bbnLL 16bn/	.	<
16c 16C\	.	.	16ccc 16cc/	.	.
16d 16D\	.	.	16ddd 16dd/	.	.
16e 16E\	.	.	16eee 16ee/	.	.
16f 16F\	.	.	16fff 16ff/	.	.
16gJJ 16G\	.	.	16gggJJ 16gg/	.	.
*clefG2	*	*	*	*	*
16aLL 16A/	.	.	16aaaLL 16aa\	.	.
16b- 16B/	.	.	16bbb- 16bb-X\	.	.
16bn 16Bn/	.	.	16bbbn 16bbn\	.	.
16cc 16c/	.	.	16cccc 16ccc\	.	.
16dd 16d/	.	.	16dddd 16ddd\	.	.
16eeJJ 16e/	.	.	16eeeeJJ 16eee\	.	[[
=86	=86	=86	=86	=86	=86
8ff 8f\	.	.	8ffff 8fff\	.	sf
*	*	*	*X8va	*	*
8r	.	.	8r	.	.
8r	.	.	8r	.	.
*clefF4	*	*	*	*	*
*	*	*	*ped	*	*
8BnL 8A 8F 8BB-^\	.	.	8ddL 8a-X 8f^\	.	f
8B 8A 8F 8BB-^\	.	.	8ff 8a- 8f^\	.	.
8BJ 8A 8F 8BB-^\	.	.	8eeJ 8a- 8f\	.	.
*	*	*	*Xped	*	*
=87	=87	=87	=87	=87	=87
8c 8An 8F 8C\	.	.	8ff 8an 8f/	.	sf
!	!	!	!	!	!LO:DY:a
*ped	*	*	*	*	*
16CLL 16BB- 16GG 16CC\	.	ff	16eLL 16E</	.	ff
16C 16BB- 16GG 16CC\	.	.	16e 16E</	.	.
16C 16BB- 16GG 16CC\	.	.	16e 16E</	.	.
16CJJ 16BB- 16GG 16CC\	.	.	16fJJ 16F</	.	.
*Xped	*	*	*	*	*
16CLL 16BB- 16GG 16CC\	.	.	16gLL 16G</	.	.
16C 16BB- 16GG 16CC\	.	.	16a 16A</	.	.
16C 16BB- 16GG 16CC\	.	.	16b- 16B-</	.	.
16C 16BB- 16GG 16CC\	.	.	16cc 16c/	.	<
16C 16BB- 16GG 16CC\	.	.	16dd 16d/	.	.
16CJJ 16BB- 16GG 16CC\	.	.	16eeJJ 16e/	.	[[
=88	=88	=88	=88	=88	=88
*	*	*	*ped	*	*
8AA 8FF\	.	.	8ff 8f/	.	sf
8r	.	.	8r	.	.
16r	.	.	16r	.	.
*	*	*	*clefF4	*	*
16FF 16FFF\	.	.	16F 16C 16AA/	.	sfz
[4.FF [4.FFF\	.	.	[4.F [4.C 4.AA/	.	.
=89	=89	=89	=89	=89	=89
4.FF] 4.FFF\]	.	.	4.F] 4.C] 4.AA/	.	.
8r	.	.	8r	.	.
4r	.	.	4r	.	.
*	*	*	*Xped	*	*
==	==	==	==	==	==
*-	*-	*-	*-	*-	*-
!!!RDF**kern: > = above
!!!RDF**kern: < = below
!!!system-decoration: [(s1,s2)]
!!!ENC: Berenika Jozajtis
!!!END: 2022-07-17
!!!ENC: Urszula Świątek
!!!END: 2022-08-18
